!!!COM: Schiørring, Niels
!!!CDT: 1743-1798
!!!OPR@@DA: Choral-Bog
!!!ONM: 25
!!!OTL@@DA: Guds Godhed ville vi priſe
**kern	**fb	**kern	**kern	**kern	**kern	**kern	**kern	**kern
*part6	*part6	*part6	*part5	*part5	*part4	*part3	*part2	*part1
*staff8	*	*staff7	*staff6	*staff5	*staff4	*staff3	*staff2	*staff1
*clefF4	*	*clefC1	*clefF4	*clefC1	*clefF4	*clefC4	*clefC3	*clefC1
*mclefF4	*	*mclefG2	*mclefF4	*mclefG2	*mclefF4	*mclefGv2	*mclefG2	*mclefG2
*k[b-]	*	*k[b-]	*k[b-]	*k[b-]	*k[b-]	*k[b-]	*k[b-]	*k[b-]
*F:	*	*F:	*F:	*F:	*F:	*F:	*F:	*F:
*M4/4	*	*M4/4	*M4/4	*M4/4	*M4/4	*M4/4	*M4/4	*M4/4
*met(c)	*	*met(c)	*met(c)	*met(c)	*met(c)	*met(c)	*met(c)	*met(c)
*MM180	*	*MM180	*MM180	*MM180	*MM180	*MM180	*MM180	*MM180
*	*above	*	*	*	*	*	*	*
*	*slash	*	*	*	*	*	*	*
*	*	*	*^	*^	*	*	*	*
=1	=1	=1	=1	=1	=1	=1	=1	=1	=1	=1
2G	.	2g	2B-	2G	2g	2d	2G	2B-	2d	2g
=2	=2	=2	=2	=2	=2	=2	=2	=2	=2	=2
2B-	6	2g	2B-	2B-	2g	2d	2B-	2B-	2d	2g
2F#X	6	2a	2A	2F#X	2a	2d	2F#X	2A	2d	2a
=3	=3	=3	=3	=3	=3	=3	=3	=3	=3	=3
2G	.	2b-	2G	2G	2b-	2d	2G	2G	2d	2b-
2E	6	2cc	2G	2E	2cc	2c	2E	2G	2c	2cc
=4	=4	=4	=4	=4	=4	=4	=4	=4	=4	=4
2F	.	1a	2A	2F	1a	2c	(2F	1A	(2c	1a
2C#X	6	.	2A	2C#X	.	2e	2C#X)	.	2e)	.
=5	=5	=5	=5	=5	=5	=5	=5	=5	=5	=5
2D	.	2f	2A	2D	2f	2d	2D	2A	2d	2f
2Cni	2	2f	2A	2Cni	2f	2d	2Cni	2A	2d	2f
=6	=6	=6	=6	=6	=6	=6	=6	=6	=6	=6
2BB-	6	2g	2G	2BB-	2g	2d	2BB-	2G	2d	2g
[2GG	.	2g	2B-	[2G	2g	2d	[2G	2B-	2d	2g
=7	=7	=7	=7	=7	=7	=7	=7	=7	=7	=7
2GG]	#6\ 4 2	2a	2c	2G]	2a	2e-X	2G]	2c	2e-X	2a
2FF#X	5	2a	2c	2F#X	2a	2d	2F#X	[2c	2d	2a
=8	=8	=8	=8	=8	=8	=8	=8	=8	=8	=8
2GG	4	2d	4c	2G	2d	2d	2G	(4c]	2d	2d
.	3	.	4B-	.	.	.	.	4B-)	.	.
=9:|!	=9:|!	=9:|!	=9:|!	=9:|!	=9:|!	=9:|!	=9:|!	=9:|!	=9:|!	=9:|!
2BB-	.	2dd	2B-	2BB-	2dd	2f	2BB-	2B-	2f	2dd
=10	=10	=10	=10	=10	=10	=10	=10	=10	=10	=10
2D	6	2dd	2B-	2D	2dd	2f	2D	2B-	2f	2dd
2F	8	2cc	4A	2F	2cc	4f	2F	(4A	(4f	2cc
.	-7	.	4e-X	.	.	[4a	.	4e-X)	[4a)	.
=11	=11	=11	=11	=11	=11	=11	=11	=11	=11	=11
2G	9	2b-	2d	2G	2b-	4a]	2G	2d	(4a]	2b-
.	.	.	.	.	.	4d	.	.	4d)	.
2C#X	7 5	2b-	2ryy	2C#X	2eni	2g	2C#X	2ei	2g	2b-
=12	=12	=12	=12	=12	=12	=12	=12	=12	=12	=12
2D	#	2a	2A	2D	2a	2f#X	2D	2A	2f#X	2a
2D	.	2a	2d	2D	2a	2f#	2D	2d	2f#	2a
=13	=13	=13	=13	=13	=13	=13	=13	=13	=13	=13
2G	.	2b-	2B-	2G	2b-	2d	2G	2d	2g	2b-
2F	.	2cc	2A	2Fni	2cc	2fni	2F	2f	2a	2cc
=14	=14	=14	=14	=14	=14	=14	=14	=14	=14	=14
2BB-	.	2dd	1B-	2BB-	2dd	2f	2BB-	2f	2b-	2dd
2D	6	2b-	.	2D	2b-	2b-	2D	2f	2b-	2b-
=15	=15	=15	=15	=15	=15	=15	=15	=15	=15	=15
2E	6	1cc	2G	2E	1cc	2g	(2E	(2g	1g	1cc
*	*	*	*	*	*	*^	*	*	*	*
2C	.	.	2c	2C	.	2e	2g/	2C)	2e)	.	.
=16	=16	=16	=16	=16	=16	=16	=16	=16	=16	=16	=16
2F	.	2a	2c	2F	2a	2f	2a\	2F	2c	2f	2a
2F#X	5	2a	2c	2F#X	2a	2d	2a\	2F#X	2c	2d	2a
=17	=17	=17	=17	=17	=17	=17	=17	=17	=17	=17	=17
2G	.	2b-	2B-	2G	2b-	2d	2g/	2G	2B-	2d	2b-
*	*	*	*	*	*	*v	*v	*	*	*	*
2D	#	2a	2d	2D	2a	2f#X	2D	2d	2f#X	2a
=18	=18	=18	=18	=18	=18	=18	=18	=18	=18	=18
2E-X	.	2g	1B-	2E-X	2g	2g	2E-X	2B-	2g	2g
2D	6 4	2g	.	2D	2g	2d	2D	2B-	2d	2g
=19	=19	=19	=19	=19	=19	=19	=19	=19	=19	=19
2C#X	6	1a	1A	2C#X	1a	2eni	(2C#X	1A	(2e	1a
2AA	#	.	.	2AA	.	2c#X	2AA)	.	2c#X)	.
=20	=20	=20	=20	=20	=20	=20	=20	=20	=20	=20
2D	.	2f	2A	2D	2f	2d	2D	2A	2d	2f
2AA	n	2e	[2A	2AA	2e	[2cni	2AA	[2A	[2cni	2e
=21	=21	=21	=21	=21	=21	=21	=21	=21	=21	=21
2BB-	9 7	2d	2A]	2BB-	2d	2c]	2BB-	2A]	2c]	2d
2E-X	.	2g	2G	2E-X	2g	2B-	2E-X	2G	2B-	2g
=22	=22	=22	=22	=22	=22	=22	=22	=22	=22	=22
2C	6 5 -	2g	1A	2C	2g	2e-X	2C	2A	2e-X	2g
2D	#	2f#X	.	2D	2f#X	2d	2D	2A	2d	2f#X
=23	=23	=23	=23	=23	=23	=23	=23	=23	=23	=23
*	*	*	*	*	*	*^	*	*	*	*
2GG	.	2g	2B-	2GG	2g	2B-	2d/	2GG	2B-	2d	2g
*	*	*	*v	*v	*	*	*	*	*	*	*
*	*	*	*	*v	*v	*v	*	*	*	*
==	==	==	==	==	==	==	==	==
*-	*-	*-	*-	*-	*-	*-	*-	*-
!!!system-decoration: {(s1,s2,s3,s4)}{(s5,s6)}{(s7,s8)}
!!!RDF**kern: i = editorial accidental, paren
!!!RDF**kern: > = above
!!!RDF**kern: < = below
!!!AGN: chorale
!!!EED: Derek Remeš
!!!EED2: Victor Phan
!!!END: 2023/11/28
!!!ENC: Wolfgang Drescher
!!!EEV: 2023/12/12
!!!title: @{ONM}. @{OTL}
!!!verovio: mnumInterval 1